src/basic/100/u2191-up.svg

<svg width="90" height="128" viewBox="0 0 90 128" fill="none" xmlns="http://www.w3.org/2000/svg">
<path fill-rule="evenodd" clip-rule="evenodd" d="M45.3464,2.64645l44,43.99995l-0.7071,0.7072l-43.1464,-43.14651v123.79291h-1v-123.79288l-43.14646,43.14648l-0.70711,-0.7072l43.99997,-43.99995l0.3536,-0.35356z" fill="black"/>
</svg>

<svg width="90" height="128" viewBox="0 0 90 128" fill="none" xmlns="http://www.w3.org/2000/svg">
<path fill-rule="evenodd" clip-rule="evenodd" d="M45.3464 2.64645L89.3464 46.6464L88.6393 47.3536L45.4929 4.20709L45.4929 128L44.4929 128L44.4929 4.20712L1.34644 47.3536L0.639329 46.6464L44.6393 2.64645L44.9929 2.29289L45.3464 2.64645Z" fill="black"/>
</svg>
